; generated by PrusaSlicer 2.7.1+linux-x64-GTK3 on 2024-02-06 at 11:50:53 UTC

; 

; external perimeters extrusion width = 0.45mm
; perimeters extrusion width = 0.45mm
; infill extrusion width = 0.45mm
; solid infill extrusion width = 0.45mm
; top infill extrusion width = 0.40mm
; first layer extrusion width = 0.70mm

M104 S200 ; set temperature
;TYPE:Custom
G28 ; home all axes
G1 Z5 F5000 ; lift nozzle
M109 S200 ; set temperature and wait for it to be reached
G21 ; set units to millimeters
G90 ; use absolute coordinates
M82 ; use absolute distances for extrusion
G92 E0
; Filament gcode
M107
;LAYER_CHANGE
;Z:0.35
;HEIGHT:0.35
G1 Z.35 F7800
G1 E-2 F2400
G92 E0
G1 X70.702 Y88.43 F7800
G1 E2 F2400
;TYPE:Skirt/Brim
;WIDTH:0.7
G1 F1800
G1 X71.642 Y87.801 E2.10284
G1 X72.679 Y87.296 E2.20772
G1 X73.856 Y86.919 E2.3201
G1 X74.988 Y86.726 E2.42452
G1 X98.756 Y85.261 E4.58984
G1 X100.326 Y85.224 E4.73264
G1 X103.122 Y85.441 E4.98764
G1 X105.982 Y86.052 E5.25357
G1 X108.455 Y86.922 E5.49195
G1 X110.989 Y88.193 E5.74973
G1 X113.345 Y89.792 E6.00864
G1 X115.446 Y91.663 E6.26446
G1 X116.423 Y92.723 E6.39554
G1 X117.371 Y93.902 E6.5331
G1 X118.878 Y96.222 E6.78466
G1 X119.508 Y97.749 E6.93486
G1 X119.808 Y99.338 E7.0819
G1 X119.773 Y100.993 E7.23242
G1 X119.626 Y101.805 E7.30745
G1 X119.347 Y102.737 E7.39591
G1 X118.494 Y104.438 E7.56894
G1 X117.036 Y106.534 E7.8011
G1 X115.39 Y108.394 E8.02694
G1 X113.661 Y109.957 E8.23887
G1 X112.244 Y111.012 E8.39951
G1 X110.696 Y111.975 E8.56528
G1 X109.129 Y112.78 E8.72547
G1 X107.381 Y113.498 E8.8973
G1 X105.621 Y114.047 E9.06494
G1 X103.781 Y114.454 E9.23629
G1 X102.026 Y114.688 E9.39728
G1 X100.214 Y114.778 E9.56225
G1 X74.608 Y113.227 E11.89486
G1 X73.087 Y112.857 E12.0372
G1 X71.734 Y112.252 E12.17197
G1 X70.351 Y111.282 E12.32557
G1 X69.41 Y110.323 E12.44774
G1 X68.772 Y109.445 E12.54643
G1 X68.174 Y108.314 E12.66276
G1 X67.798 Y107.262 E12.76434
G1 X67.562 Y106.167 E12.86619
G1 X67.467 Y104.899 E12.98181
G1 X67.474 Y94.769 E13.90293
G1 X67.582 Y93.707 E14
G1 X67.798 Y92.738 E14.09027
G1 X68.409 Y91.19 E14.2416
G1 X69.378 Y89.717 E14.40192
G1 X69.906 Y89.133 E14.47351
G1 X70.657 Y88.47 E14.5646
G1 E12.5646 F2400
G92 E0
G1 X111.184 Y101.677 F7800
G1 E2 F2400
;TYPE:Perimeter
;WIDTH:0.7
G1 F1800
G1 X110.853 Y101.374 E2.0408
G1 X110.34 Y101.182 E2.09061
G1 X110.942 Y100.329 E2.18554
G1 X111.263 Y99.772 E2.244
G1 X111.372 Y99.477 E2.2726
G1 X111.43 Y99.019 E2.31458
G1 X111.358 Y98.562 E2.35665
G1 X111.745 Y99.11 E2.41765
G1 X112.175 Y99.817 E2.49289
G1 X112.227 Y100.023 E2.51221
G1 X112.199 Y100.128 E2.52209
G1 X111.935 Y100.595 E2.57087
G1 X111.53 Y101.208 E2.63768
G1 X111.219 Y101.629 E2.68527
G1 X111.705 Y100.002 F7800
;WIDTH:0.446397
G1 F1800
G1 X111.364 Y100.573 E2.7212
;WIDTH:0.433839
G1 X111.107 Y100.953 E2.74515
G1 E.74515 F2400
G92 E0
G1 X111.107 Y100.953 F7800
G1 X106.809 Y97.12
G1 E2 F2400
;WIDTH:0.7
G1 F1800
G1 X106.19 Y96.909 E2.05947
G1 X105.607 Y96.905 E2.11248
G1 X105.104 Y97.056 E2.16023
G1 X104.568 Y97.426 E2.21945
G1 X104.248 Y97.211 E2.25451
G1 X103.637 Y96.947 E2.31503
G1 X103.082 Y96.883 E2.36583
G1 X102.596 Y96.953 E2.41048
G1 X102.136 Y97.121 E2.45501
G1 X101.932 Y97.016 E2.47587
G1 X101.585 Y96.919 E2.50863
G1 X101.049 Y96.89 E2.55744
G1 X100.704 Y96.955 E2.58936
G1 X100.185 Y97.185 E2.64098
G1 X99.882 Y97.028 E2.67201
G1 X99.453 Y96.916 E2.71233
G1 X99.024 Y96.883 E2.75145
G1 X98.629 Y96.959 E2.78803
G1 X98.031 Y97.192 E2.84639
G1 X97.635 Y97.509 E2.89251
G1 X97.358 Y97.857 E2.93295
G1 X97.129 Y98.396 E2.9862
G1 X97.115 Y98.647 E3.00906
;WIDTH:0.67404
G1 X97.101 Y98.897 E3.03088
G1 X97.062 Y98.648 E3.05285
;WIDTH:0.7
G1 X97.024 Y98.399 E3.07575
G1 X96.818 Y97.804 E3.133
G1 X96.592 Y97.36 E3.1783
G1 X96.294 Y96.899 E3.22821
G1 X95.833 Y96.403 E3.28978
G1 X95.229 Y95.969 E3.35741
G1 X94.593 Y95.693 E3.42045
G1 X93.958 Y95.54 E3.47984
G1 X93.359 Y95.471 E3.53467
G1 X91.639 Y95.437 E3.6911
G1 X91.108 Y95.505 E3.73978
G1 X90.509 Y95.734 E3.79809
G1 X90.108 Y96.038 E3.84385
G1 X89.606 Y95.703 E3.89873
G1 X89.134 Y95.488 E3.94589
G1 X88.645 Y95.358 E3.9919
;WIDTH:0.745291
G1 X88.594 Y95.327 E3.99772
;WIDTH:0.790583
G1 X88.542 Y95.296 E4.00402
;WIDTH:0.835874
G1 X88.49 Y95.265 E4.01072
;WIDTH:0.881166
G1 X88.439 Y95.234 E4.01772
;WIDTH:0.926457
G1 X88.387 Y95.202 E4.02528
;WIDTH:0.971749
G1 X88.335 Y95.171 E4.03318
G1 X87.438 Y95.17 E4.15021
;WIDTH:0.966873
G1 X86.688 Y95.261 E4.24825
G1 X86.644 Y95.301 E4.25597
;WIDTH:0.919002
G1 X86.6 Y95.34 E4.26319
;WIDTH:0.871132
G1 X86.557 Y95.38 E4.26999
;WIDTH:0.823261
G1 X86.513 Y95.419 E4.27639
;WIDTH:0.775391
G1 X86.469 Y95.459 E4.28245
;WIDTH:0.727521
G1 X85.831 Y95.751 E4.34906
;WIDTH:0.7
G1 X85.729 Y95.69 E4.35987
G1 X85.244 Y95.516 E4.40672
;WIDTH:0.746087
G1 X85.15 Y95.479 E4.41658
;WIDTH:0.792175
G1 X85.056 Y95.442 E4.42712
;WIDTH:0.838263
G1 X84.962 Y95.404 E4.43838
;WIDTH:0.884351
G1 X84.868 Y95.367 E4.45028
;WIDTH:0.930439
G1 X84.774 Y95.33 E4.46285
G1 X83.161 Y95.359 E4.66364
;WIDTH:0.883734
G1 X81.549 Y95.387 E4.85335
;WIDTH:0.83703
G1 X80.997 Y95.366 E4.91459
;WIDTH:0.806789
G1 X80.522 Y95.401 E4.9653
;WIDTH:0.842519
G1 X80.287 Y95.457 E4.99228
;WIDTH:0.878249
G1 X80.052 Y95.514 E5.02054
;WIDTH:0.91398
G1 X79.816 Y95.571 E5.05018
G1 X79.62 Y95.701 E5.07889
G1 X79.491 Y95.617 E5.09768
G1 X79.301 Y95.55 E5.12227
;WIDTH:0.866978
G1 X79.112 Y95.483 E5.14538
;WIDTH:0.819976
G1 X78.896 Y95.443 E5.16919
;WIDTH:0.779129
G1 X78.68 Y95.403 E5.19169
;WIDTH:0.738282
G1 X78.463 Y95.363 E5.21298
;WIDTH:0.697436
G1 X77.969 Y95.34 E5.25776
;WIDTH:0.660436
G1 X77.475 Y95.317 E5.29988
;WIDTH:0.65245
G1 X76.643 Y95.404 E5.37016
;WIDTH:0.68281
G1 X76.382 Y95.465 E5.39386
;WIDTH:0.713171
G1 X76.121 Y95.527 E5.41877
;WIDTH:0.714133
G1 X75.702 Y95.717 E5.46155
G1 X75.703 Y95.222 E5.50758
G1 X75.75 Y94.952 E5.53306
G1 X76.011 Y94.902 E5.55777
;WIDTH:0.713171
G1 X76.46 Y94.854 E5.5997
;WIDTH:0.67132
G1 X76.91 Y94.805 E5.63897
;WIDTH:0.637063
G1 X77.792 Y94.755 E5.71121
;WIDTH:0.677267
G1 X78.161 Y94.752 E5.74354
;WIDTH:0.717471
G1 X78.53 Y94.75 E5.77803
;WIDTH:0.757676
G1 X78.899 Y94.747 E5.81468
;WIDTH:0.796752
G1 X79.072 Y94.756 E5.83287
;WIDTH:0.835828
G1 X79.245 Y94.765 E5.85205
;WIDTH:0.874904
G1 X79.417 Y94.774 E5.87209
;WIDTH:0.91398
G1 X79.59 Y94.783 E5.89324
G1 X79.866 Y94.749 E5.92718
;WIDTH:0.878249
G1 X80.142 Y94.714 E5.95969
;WIDTH:0.842519
G1 X80.419 Y94.679 E5.99087
;WIDTH:0.806789
G1 X81.001 Y94.641 E6.05297
;WIDTH:0.83703
G1 X81.524 Y94.626 E6.11098
;WIDTH:0.883734
G1 X83.135 Y94.551 E6.30074
;WIDTH:0.930439
G1 X84.746 Y94.475 E6.50147
G1 X84.875 Y94.445 E6.51795
;WIDTH:0.884351
G1 X85.003 Y94.414 E6.53346
;WIDTH:0.838263
G1 X85.132 Y94.383 E6.54819
;WIDTH:0.792175
G1 X85.26 Y94.352 E6.56193
;WIDTH:0.746087
G1 X85.389 Y94.321 E6.57488
;WIDTH:0.7
G1 X85.64 Y94.305 E6.59775
;WIDTH:0.727521
G1 X86.194 Y94.285 E6.65038
;WIDTH:0.775391
G1 X86.266 Y94.305 E6.65799
;WIDTH:0.823261
G1 X86.339 Y94.324 E6.6662
;WIDTH:0.871132
G1 X86.411 Y94.344 E6.67486
;WIDTH:0.919002
G1 X86.484 Y94.363 E6.68412
;WIDTH:0.966873
G1 X86.556 Y94.383 E6.69382
G1 X86.777 Y94.362 E6.72263
;WIDTH:0.953378
G1 X87.748 Y94.295 E6.84702
;WIDTH:0.971749
G1 X88.333 Y94.276 E6.92339
G1 X88.406 Y94.249 E6.93355
;WIDTH:0.926457
G1 X88.479 Y94.222 E6.94319
;WIDTH:0.881166
G1 X88.552 Y94.195 E6.95232
;WIDTH:0.835874
G1 X88.625 Y94.168 E6.96094
;WIDTH:0.790583
G1 X88.698 Y94.14 E6.96908
;WIDTH:0.745291
G1 X88.77 Y94.113 E6.97658
;WIDTH:0.7
G1 X99.231 Y93.472 E7.92958
G1 X100.049 Y93.448 E8.00399
G1 X101 Y93.481 E8.09052
G1 X101.755 Y93.556 E8.15951
G1 X102.494 Y93.672 E8.22753
G1 X103.488 Y93.897 E8.3202
G1 X104.46 Y94.194 E8.41262
G1 X105.226 Y94.487 E8.48719
G1 X105.961 Y94.822 E8.56064
G1 X106.791 Y95.267 E8.64627
G1 X107.607 Y95.783 E8.73406
G1 X108.28 Y96.273 E8.80976
G1 X109.006 Y96.882 E8.89593
G1 X108.007 Y96.879 E8.98677
G1 X107.427 Y96.927 E9.03969
G1 X107.062 Y97.006 E9.07365
G1 X106.864 Y97.095 E9.09339
G1 E7.09339 F2400
G92 E0
G1 X106.864 Y97.095 F7800
G1 X106.226 Y104.07
G1 E2 F2400
;WIDTH:0.708532
G1 F1800
G1 X106.523 Y104.339 E2.03693
G1 X107.013 Y104.595 E2.08789
G1 X106.462 Y104.913 E2.14653
G1 X105.726 Y105.286 E2.22258
G1 X105.943 Y104.801 E2.27155
G1 X106.205 Y104.126 E2.33829
G1 E.33829 F2400
G92 E0
G1 X106.205 Y104.126 F7800
G1 X97.065 Y99.941
G1 E2 F2400
;WIDTH:0.420612
G1 F1800
G1 X97.525 Y100.03 E2.02356
;WIDTH:0.464701
G1 X97.407 Y99.806 E2.03791
;WIDTH:0.508791
G1 X97.289 Y99.583 E2.05383
;WIDTH:0.549133
G1 X97.247 Y99.519 E2.05911
;WIDTH:0.589476
G1 X97.205 Y99.455 E2.06484
;WIDTH:0.629819
G1 X97.163 Y99.391 E2.07102
G1 X97.143 Y99.472 E2.07775
;WIDTH:0.587977
G1 X97.123 Y99.553 E2.08398
;WIDTH:0.546136
G1 X97.103 Y99.634 E2.0897
;WIDTH:0.504294
G1 X97.084 Y99.715 E2.0949
;WIDTH:0.462453
G1 X97.064 Y99.797 E2.09966
;WIDTH:0.420612
G1 X97.065 Y99.941 E2.1069
G1 E.1069 F2400
G92 E0
G1 X97.065 Y99.941 F7800
G1 X95.671 Y101.601
G1 E2 F2400
;TYPE:External perimeter
;WIDTH:0.705719
G1 F1800
G1 X95.54 Y101.821 E2.0235
G1 E.0235 F2400
G92 E0
G1 X95.54 Y101.821 F7800
G1 X85.371 Y99.411
G1 E2 F2400
;TYPE:Perimeter
;WIDTH:0.61734
G1 F1800
G1 X85.35 Y99.586 E2.01391
;WIDTH:0.629855
G1 X85.348 Y100.108 E2.05605
;WIDTH:0.659701
G1 X85.443 Y100.481 E2.08879
G1 X85.429 Y100.524 E2.09264
G1 X85.034 Y100.914 E2.13986
G1 X84.818 Y101.338 E2.18034
G1 X84.798 Y100.158 E2.28073
;WIDTH:0.629855
G1 X84.789 Y99.532 E2.33127
;WIDTH:0.61734
G1 X85.312 Y99.424 E2.37341
G1 E.37341 F2400
G92 E0
G1 X85.312 Y99.424 F7800
G1 X79.237 Y99.985
G1 E2 F2400
;WIDTH:0.744508
G1 F1800
G1 X79.17 Y99.976 E2.00658
G1 X79.362 Y99.952 E2.02543
;WIDTH:0.79409
G1 X79.554 Y99.928 E2.04567
;WIDTH:0.794486
G1 X79.846 Y99.805 E2.07884
G1 X80.163 Y99.58 E2.11953
G1 X80.639 Y99.669 E2.17022
G1 X80.646 Y100.903 E2.2994
G1 X80.509 Y100.671 E2.3276
G1 X80.057 Y100.267 E2.39106
G1 X79.55 Y100.023 E2.44996
;WIDTH:0.79409
G1 X79.36 Y100 E2.46998
;WIDTH:0.744508
G1 X79.297 Y99.992 E2.47617
G1 X78.631 Y99.967 F7800
;WIDTH:0.698333
G1 F1800
G1 X78.461 Y100.016 E2.49221
;WIDTH:0.655123
G1 X78.292 Y100.066 E2.50708
;WIDTH:0.611913
G1 X78.123 Y100.115 E2.52082
;WIDTH:0.568704
G1 X77.639 Y100.375 E2.56028
G1 X77.617 Y100.098 E2.58024
G1 X77.637 Y99.552 E2.61948
G1 X78.12 Y99.789 E2.65812
;WIDTH:0.611913
G1 X78.29 Y99.849 E2.6722
;WIDTH:0.655123
G1 X78.46 Y99.908 E2.68739
;WIDTH:0.698333
G1 X78.574 Y99.947 E2.69832
G1 E.69832 F2400
G92 E0
G1 X78.574 Y99.947 F7800
G1 X80.711 Y102.942
G1 E2 F2400
;WIDTH:0.7
G1 F1800
G1 X80.908 Y103.484 E2.05244
G1 X81.102 Y103.781 E2.0847
G1 X81.536 Y104.156 E2.13685
;WIDTH:0.744105
G1 X81.647 Y104.229 E2.14978
;WIDTH:0.788211
G1 X81.757 Y104.303 E2.16354
;WIDTH:0.832316
G1 X81.868 Y104.377 E2.17824
;WIDTH:0.876422
G1 X81.979 Y104.451 E2.1938
;WIDTH:0.920528
G1 X82.09 Y104.525 E2.21021
G1 X82.338 Y104.57 E2.24122
;WIDTH:0.902889
G1 X82.888 Y104.601 E2.30757
G1 X82.973 Y104.566 E2.31864
;WIDTH:0.856119
G1 X83.058 Y104.532 E2.32904
;WIDTH:0.809349
G1 X83.143 Y104.497 E2.33886
;WIDTH:0.76258
G1 X83.478 Y104.356 E2.37522
;WIDTH:0.73129
G1 X83.812 Y104.216 E2.4098
;WIDTH:0.7
G1 X84.234 Y103.88 E2.45885
G1 X84.558 Y103.444 E2.50824
G1 X84.739 Y102.927 E2.55805
G1 X84.831 Y103.144 E2.57948
G1 X85.105 Y103.595 E2.62746
G1 X85.424 Y103.932 E2.66965
G1 X86.07 Y104.323 E2.73831
G1 X86.525 Y104.492 E2.78244
G1 X87.151 Y104.618 E2.8405
G1 X87.519 Y104.648 E2.87407
G1 X88.378 Y104.61 E2.95225
G1 X88.998 Y104.461 E3.01023
G1 X89.583 Y104.203 E3.06837
G1 X90.082 Y103.848 E3.12405
G1 X90.509 Y104.236 E3.17651
G1 X91.05 Y104.444 E3.22921
G1 X91.491 Y104.514 E3.26981
G1 X92.132 Y104.477 E3.32819
G1 X92.927 Y104.482 E3.40048
G1 X93.602 Y104.438 E3.46199
G1 X94.367 Y104.293 E3.53279
G1 X94.859 Y104.119 E3.58024
G1 X95.168 Y104.401 E3.61828
G1 X95.61 Y104.675 E3.66557
G1 X96.191 Y104.889 E3.72187
G1 X96.552 Y104.945 E3.75509
G1 X96.967 Y104.954 E3.79283
G1 X97.457 Y104.862 E3.83816
G1 X97.889 Y104.706 E3.87992
G1 X98.215 Y104.495 E3.91523
G1 X98.549 Y104.62 E3.94766
G1 X99.197 Y104.678 E4.00682
G1 X99.621 Y104.591 E4.04618
G1 X100.099 Y104.363 E4.09434
G1 X100.267 Y104.468 E4.11235
G1 X100.735 Y104.636 E4.15756
G1 X100.698 Y104.984 E4.18938
G1 X100.728 Y105.454 E4.2322
G1 X100.964 Y106.105 E4.29516
G1 X101.269 Y106.492 E4.33996
G1 X100.709 Y106.537 E4.39104
G1 X99.835 Y106.551 E4.47052
G1 X99.208 Y106.527 E4.52757
G1 X83.97 Y105.592 E5.91576
;WIDTH:0.73129
G1 X83.575 Y105.552 E5.95367
;WIDTH:0.76258
G1 X83.18 Y105.513 E5.99338
;WIDTH:0.801924
G1 X83.104 Y105.488 E6.00184
;WIDTH:0.841268
G1 X83.028 Y105.464 E6.01073
;WIDTH:0.880612
G1 X82.953 Y105.439 E6.02
;WIDTH:0.887267
G1 X82.551 Y105.412 E6.06762
;WIDTH:0.920528
G1 X81.972 Y105.359 E6.13915
G1 X81.794 Y105.371 E6.1611
;WIDTH:0.876422
G1 X81.616 Y105.382 E6.18189
;WIDTH:0.832316
G1 X81.438 Y105.393 E6.20154
;WIDTH:0.788211
G1 X81.26 Y105.404 E6.22005
;WIDTH:0.744105
G1 X81.082 Y105.415 E6.23741
;WIDTH:0.7
G1 X77.989 Y105.233 E6.51914
;WIDTH:0.6849
G1 X76.806 Y105.168 E6.62427
;WIDTH:0.710146
G1 X76.297 Y105.117 E6.67154
;WIDTH:0.741826
G1 X75.754 Y105.03 E6.72489
G1 X75.713 Y104.799 E6.74765
G1 X75.713 Y104.22 E6.80382
G1 X76.009 Y104.371 E6.83606
G1 X76.386 Y104.49 E6.87441
;WIDTH:0.710146
G1 X76.81 Y104.552 E6.91401
;WIDTH:0.6849
G1 X77.234 Y104.614 E6.95203
G1 X78.007 Y104.624 E7.02063
;WIDTH:0.699169
G1 X78.409 Y104.577 E7.05738
;WIDTH:0.7
G1 X79.01 Y104.414 E7.114
G1 X79.436 Y104.227 E7.1563
G1 X80.01 Y103.845 E7.219
G1 X80.403 Y103.434 E7.27071
G1 X80.679 Y102.992 E7.31809
G1 E5.31809 F2400
G92 E0
G1 X80.679 Y102.992 F7800
G1 X79.162 Y100.623
G1 E2 F2400
G1 F1800
G1 X78.947 Y100.585 E2.01985
G1 X78.414 Y100.613 E2.06838
G1 X78.004 Y100.801 E2.10939
G1 X77.696 Y101.062 E2.1461
G1 X77.576 Y101.079 E2.15712
G1 X77.315 Y101.016 E2.18153
G1 X77.175 Y100.847 E2.20149
G1 X77.057 Y100.32 E2.2506
G1 X77.061 Y99.57 E2.3188
G1 X77.194 Y99.043 E2.36822
G1 X77.401 Y98.872 E2.39263
G1 X77.559 Y98.865 E2.40701
G1 X78.119 Y99.182 E2.46552
G1 X78.399 Y99.285 E2.49265
G1 X78.935 Y99.372 E2.54203
G1 X79.357 Y99.285 E2.58121
G1 X79.638 Y99.144 E2.6098
G1 X80.031 Y98.758 E2.65989
G1 X80.346 Y98.933 E2.69266
G1 X80.661 Y99.004 E2.72202
G1 X81.317 Y98.972 E2.78174
G1 X81.322 Y101.543 E3.01552
G1 X81.298 Y102.708 E3.12148
G1 X81.421 Y103.099 E3.15875
G1 X81.582 Y103.381 E3.18828
G1 X81.904 Y103.651 E3.22649
G1 X82.251 Y103.808 E3.26112
G1 X82.644 Y103.884 E3.29752
G1 X83.056 Y103.846 E3.33514
G1 X83.38 Y103.74 E3.36614
G1 X83.711 Y103.524 E3.40208
G1 X84.004 Y103.155 E3.44492
G1 X84.125 Y102.803 E3.47877
G1 X84.217 Y102.345 E3.52125
G1 X84.203 Y98.976 E3.82759
G1 X84.643 Y98.965 E3.86761
G1 X85.283 Y98.833 E3.92703
G1 X85.591 Y98.644 E3.95989
G1 X85.65 Y98.717 E3.96842
G1 X86.068 Y99.042 E4.01657
G1 X86.001 Y99.195 E4.03176
G1 X85.929 Y99.656 E4.07419
G1 X85.929 Y100.004 E4.10583
G1 X86.085 Y100.439 E4.14785
G1 X86.364 Y100.757 E4.18632
G1 X86.22 Y100.787 E4.19969
G1 X85.8 Y101.003 E4.24263
G1 X85.53 Y101.26 E4.27652
G1 X85.292 Y101.733 E4.32467
G1 X85.226 Y102.154 E4.36342
G1 X85.287 Y102.608 E4.40507
G1 X85.5 Y103.083 E4.45241
G1 X85.823 Y103.451 E4.49693
G1 X86.375 Y103.778 E4.55527
G1 X86.649 Y103.879 E4.58182
G1 X87.496 Y104.023 E4.65994
G1 X88.449 Y103.962 E4.74677
G1 X89.001 Y103.794 E4.79924
G1 X89.427 Y103.564 E4.84326
G1 X89.887 Y103.181 E4.89769
G1 X90.213 Y102.771 E4.94532
G1 X90.236 Y102.892 E4.95652
G1 X90.436 Y103.3 E4.99784
G1 X90.78 Y103.665 E5.04345
G1 X91.163 Y103.83 E5.08137
G1 X91.529 Y103.89 E5.11509
G1 X92.138 Y103.852 E5.17057
G1 X92.895 Y103.858 E5.23941
G1 X93.503 Y103.821 E5.2948
G1 X94.017 Y103.738 E5.34214
G1 X94.565 Y103.567 E5.39434
G1 X95.04 Y103.296 E5.44407
G1 X95.371 Y103.761 E5.49597
G1 X95.938 Y104.143 E5.55814
G1 X96.287 Y104.272 E5.59197
G1 X96.734 Y104.337 E5.63304
G1 X97.334 Y104.249 E5.68818
G1 X97.678 Y104.104 E5.72212
G1 X98.169 Y103.754 E5.77695
G1 X98.598 Y103.984 E5.82121
G1 X99.009 Y104.051 E5.85908
G1 X99.342 Y104.024 E5.88946
G1 X99.793 Y103.819 E5.93451
G1 X100.095 Y103.514 E5.97354
G1 X100.179 Y103.621 E5.98591
G1 X100.56 Y103.916 E6.02973
G1 X101.051 Y104.066 E6.07641
